storage/app/icons/phosphoricons/fill/notepad-fill.svg

<svg xmlns="http://www.w3.org/2000/svg" fill="currentColor" viewBox="0 0 256 256"><path d="M208 32h-24v-8a8 8 0 0 0-16 0v8h-32v-8a8 8 0 0 0-16 0v8H88v-8a8 8 0 0 0-16 0v8H48a8 8 0 0 0-8 8v160a32 32 0 0 0 32 32h112a32 32 0 0 0 32-32V40a8 8 0 0 0-8-8m-88 24a8 8 0 0 1 16 0v8a8 8 0 0 1-16 0ZM80 72a8 8 0 0 1-8-8v-8a8 8 0 0 1 16 0v8a8 8 0 0 1-8 8m80 96H96a8 8 0 0 1 0-16h64a8 8 0 0 1 0 16m0-32H96a8 8 0 0 1 0-16h64a8 8 0 0 1 0 16m24-72a8 8 0 0 1-16 0v-8a8 8 0 0 1 16 0Z"/></svg>

<svg xmlns="http://www.w3.org/2000/svg" viewBox="0 0 256 256" fill="currentColor"><path d="M208,32H184V24a8,8,0,0,0-16,0v8H136V24a8,8,0,0,0-16,0v8H88V24a8,8,0,0,0-16,0v8H48a8,8,0,0,0-8,8V200a32,32,0,0,0,32,32H184a32,32,0,0,0,32-32V40A8,8,0,0,0,208,32ZM120,56a8,8,0,0,1,16,0v8a8,8,0,0,1-16,0ZM80,72a8,8,0,0,1-8-8V56a8,8,0,0,1,16,0v8A8,8,0,0,1,80,72Zm80,96H96a8,8,0,0,1,0-16h64a8,8,0,0,1,0,16Zm0-32H96a8,8,0,0,1,0-16h64a8,8,0,0,1,0,16Zm24-72a8,8,0,0,1-16,0V56a8,8,0,0,1,16,0Z"/></svg>
